X: 1
T: Fans'halling fr\aa \Orskog
O: arr. D\aam og drag
R: halling
S: printed MS of unknown origin
M: 2/4
L: 1/16
K: G
V: 1
D \
| "G"G2(GB) d3g | (gf)"D"af "G"d2g2 \
| (gf)"D"af "G"d2(BG) | "D"BAGF "G"G3 :|
|: B \
| "G"B2(dc) "D"A2"G"(BG) | B2(dc) "D"A3c \
| "G"B2(dc) "D"A2"G"(BG) |1,3 "D"(BA)GF "G"(GA)Bc :|2,4 "D"BAGF "G"G3 :|
V: 2
D \
| "G"B,2(B,D) [G3B,3]z | "G"(BA)"D"FD "G"[G4B,4] \
|  (BA)"D"FD "G"D2(B,G,) | "D"DCB,A, "G"B,3 :|
|: G \
| "G"G2(BA) "D"F2"G"(FD) | "G"G2(BA) "D"[A3F3]z \
| "G"G2(BA) "D"F2"G"(FD) |1,3 "D"(GF)GA "G"(GF)GA :|2,4 "D"(DC)B,A, "G"B,3 :|
